X:6
T:Edinbrough Castle. JBi.06
M:2/4
L:1/8
Q:1/2=65
S:James Biggins MS, Leeds, 1779.
R:.Misc.
O:England
A:Yorkshire
Z:vmp.Nick Barber & Chris Partington
K:D
D2FD|d2fd|B2dB|AFED|EFGA|BcdB|A2dB|AFED:|!
|:A2FD|B2B/c/d|EGFE|FGAg|(ff/g/) af|ec (B/c/d)|cAdB|AFED:|!
|:EFGB|EFGB|EFGB|AFED|DEFA|DEFA|DEFA|DEFd|AFED:|!
|:(ff/g/) af|ec (B/c/d)|cAdB|AFED|EFGA|Bgec|dBGB|AFED:|

